svg/300/sharp/event.svg

<svg xmlns="http://www.w3.org/2000/svg" width="48" height="48" viewBox="0 -960 960 960"><path d="M599.851-225.385q-37.697 0-63.773-26.303-26.077-26.303-26.077-64 0-37.696 26.303-63.773 26.303-26.077 64-26.077 37.696 0 63.773 26.303 26.077 26.304 26.077 64t-26.304 63.773q-26.303 26.077-63.999 26.077Zm-459.85 125.384v-694.613H271.54v-70h50.384v70h317.691v-70h49.229v70h131.155v694.613H140.001Zm45.384-45.384h589.23v-409.614h-589.23v409.614Zm0-454.997h589.23V-749.23h-589.23v148.848Zm0 0V-749.23v148.848Z"/></svg>

<svg xmlns="http://www.w3.org/2000/svg" width="48" height="48" viewBox="0 -960 960 960"><path d="M599.85-225.39q-37.7 0-63.77-26.3-26.08-26.3-26.08-64 0-37.69 26.3-63.77 26.31-26.08 64-26.08 37.7 0 63.78 26.31 26.07 26.3 26.07 64 0 37.69-26.3 63.77-26.3 26.07-64 26.07ZM140-100v-694.61h131.54v-70h50.38v70h317.69v-70h49.23v70H820V-100H140Zm45.39-45.39h589.22V-555H185.39v409.61Zm0-454.99h589.22v-148.85H185.39v148.85Zm0 0v-148.85 148.85Z"/></svg>
